X:1
T:What thing is there that I can wish
T:Joseph Key
T:p19,  Five Anthems and Four Hymns ... Book IV, London: [c1790]
T:This edition by Edmund Gooch released into the public domain, September 2016.
T:What thing is there that I can wish
T:PSALM LXXIII Ver. 23
C:Joseph Key
Z:p19,  Five Anthems and
Z:Four Hymns ... Book IV,
Z:London: [c1790]
%%score [ 1 2 3 ( 4 5 ) ]
L:1/8
M:3/2
K:A
V:1 treble nm="Soprano" snm="S."
V:2 treble nm="Alto" snm="A."
V:3 treble-8 transpose=-12 nm="Tenor" snm="T."
V:4 bass nm="Bass" snm="B."
V:5 bass 
V:1
 A4 | (A6 B2) (c3 d) | (c4 B4) A4 | (d4 c4) TB4 | c8 c4 | (B4 A4) G4 | (F4 E4) T^D4 | E8 G4 | %8
w: But|lo, _ all _|such _ as|thee _ for-|sake Thou|shalt _ de-|stroy _ each|one, And|
w: What|thing _ is _|there _ that|I _ can|wish But|thee _ in|heav’n _ a-|bove? And|
w: My|flesh _ and _|spi- * rit|both _ do|fail, But|God _ will|me _ re-|store; For|
 c8 G4 | (A3 B A2 B2) c4 | B8 A4 | G8 B4 | (c3 d c2 B2) A4 | (B4 A4) TG4 | A8 |] %15
w: those that|trust _ _ _ in|a- ny|thing, Sa-|ving _ _ _ in|thee _ a-|lone.|
w: in the|earth _ _ _ there|no- thing|is Like|thee _ _ _ that|I _ can|love.|
w: of my|heart _ _ _ he|is the|strength And|por- * * * tion|e- * ver-|more.|
V:2
 (C3 D) | E8 (E3 D) | (C4 D4) E4 | (F2 B,2 C4) D4 | C8 E4 | (E4 ^D4) E4 | (C4 B,4) B,4 | %7
w: But _|lo, all _|such _ as|thee _ _ for-|sake Thou|shalt _ de-|stroy _ each|
w: What _|thing is _|there _ that|I _ _ can|wish But|thee _ in|heav’n _ a-|
w: My _|flesh and _|spi- * rit|both _ _ do|fail, But|God _ will|me _ re-|
 B,8 (C3 D) | E8 E4 | E8 E4 | F8 E4 | E8 E4 | E8 F4 | (F4 E4) (E2 D2) | C8 |] %15
w: one, And _|those that|trust in|a- ny|thing, Sa-|ving in|thee _ a- *|lone.|
w: bove? And _|in the|earth there|no- thing|is Like|thee that|I _ can _|love.|
w: store; For _|of my|heart he|is the|strength And|por- tion|e- * ver- *|more.|
V:3
 (A3 B) | (c6 d2) (e3 f) | (e4 d4) c4 | (B4 A4) TG4 | A8 A4 | (G4 F4) E4 | (A4 G4) TF4 | G8 E4 | %8
w: But _|lo, _ all _|such _ as|thee _ for-|sake Thou|shalt _ de-|stroy _ each|one, And|
w: What _|thing _ is _|there _ that|I _ can|wish But|thee _ in|heav’n _ a-|bove? And|
w: My _|flesh _ and _|spi- * rit|both _ do|fail, But|God _ will|me _ re-|store; For|
 A8 B4 | (c3 d c2 B2) A4 | d8 c4 | B8 G4 | (A3 B A2 B2) c4 | (d4 c4) TB4 | A8 |] %15
w: those that|trust _ _ _ in|a- ny|thing, Sa-|ving _ _ _ in|thee _ a-|lone.|
w: in the|earth _ _ _ there|no- thing|is Like|thee _ _ _ that|I _ can|love.|
w: of my|heart _ _ _ he|is the|strength And|por- * * * tion|e- * ver-|more.|
V:4
 A,,4 | A,,8 A,,4 | (A,,4 B,,4) C,4 | (D,4 E,4) E,4 | A,,8 A,,4 | (E,4 F,4) G,4 | (A,4 B,4) B,,4 | %7
w: But|lo, all|such _ as|thee _ for-|sake Thou|shalt _ de-|stroy _ each|
w: What|thing is|there _ that|I _ can|wish But|thee _ in|heav’n _ a-|
w: My|flesh and|spi- * rit|both _ do|fail, But|God _ will|me _ re-|
 E,8 (C,3 B,,) | %8
w: one, And _|
w: bove? And _|
w: store; For _|
"^Notes: The alto part is printed in the source in the treble clef an octave above sounding pitch. Only the first verse of the text given here (verse 23of Sternhold’s Ps. 73) is printed in the source: the next three verses, to the end of the psalm, have been added editorially. The small notes in thisedition in the bass part in bars 5-6 are editorial, and may be played by a bass instrument if one is used to accompany the voices, in order toavoid inverting the harmony at this point where the tenor and bass parts cross." A,,8 E,4 | %9
w: those that|
w: in the|
w: of my|
 A,8 A,4 | D,8 A,,4 | E,8 E,4 | (A,6 G,2) (F,2 E,2) | (D,4 E,4) E,4 | A,,8 |] %15
w: trust in|a- ny|thing, Sa-|ving _ in _|thee _ a-|lone.|
w: earth there|no- thing|is Like|thee _ that _|I _ can|love.|
w: heart he|is the|strength And|por- * tion _|e- * ver-|more.|
V:5
 x4 | x12 | x12 | x12 | x12 | E,,4 F,,4 G,,4 | A,,4 B,,4 x4 | x12 | x12 | x12 | x12 | x12 | x12 | %13
 x12 | x8 |] %15

